resources/haticons/SVG/cast.svg

<!-- Generated by IcoMoon.io -->
<svg version="1.1" xmlns="http://www.w3.org/2000/svg" width="24" height="24" viewBox="0 0 24 24">
<title>cast</title>
<path d="M0.984 9.984q4.547 0 7.781 3.234t3.234 7.781h-2.016q0-3.75-2.648-6.375t-6.352-2.625v-2.016zM0.984 14.016q2.906 0 4.969 2.039t2.063 4.945h-2.016q0-2.063-1.477-3.539t-3.539-1.477v-1.969zM0.984 18q1.219 0 2.109 0.891t0.891 2.109h-3v-3zM21 3q0.797 0 1.406 0.609t0.609 1.406v13.969q0 0.797-0.609 1.406t-1.406 0.609h-6.984v-2.016h6.984v-13.969h-18v3h-2.016v-3q0-0.797 0.609-1.406t1.406-0.609h18z"></path>
</svg>

<svg xmlns="http://www.w3.org/2000/svg" width="24" height="24"><path d="M.984 9.984q4.547 0 7.781 3.234t3.234 7.781H9.983q0-3.75-2.648-6.375T.983 11.999V9.983zm0 4.032q2.906 0 4.969 2.039T8.016 21H6q0-2.063-1.477-3.539T.984 15.984v-1.969zm0 3.984q1.219 0 2.109.891T3.984 21h-3v-3zM21 3q.797 0 1.406.609t.609 1.406v13.969q0 .797-.609 1.406T21 20.999h-6.984v-2.016H21V5.014H3v3H.984v-3q0-.797.609-1.406t1.406-.609h18z"/></svg>
